X:1
T:March  " "
M:6/8
L:1/8
Q:80
C:N.McSwayde/JHP
S:CUIDICH'N RICH
K:HP
|: f | \
{g}B2{GdGe}B{g}B3/2{d}c/2e | \
{g}f/2a3/2f{gef}ecB | \
{g}A2{GdGe}A{g}A3/2{d}c/2e |
{g}f2{GdG}f{gef}e3/2c/2{d}A | | \
{g}B2{GdGe}B{g}B3/2{d}c/2e | \
{g}f/2a3/2f{gef}e3/2{g}c/2e |
{g}f/2a3/2f{gef}e3/2{g}c/2e | \
{gfg}f2{BG}B{gBd}B2 :: \
f |
{g}B2{GdGe}B{gfg}f2e | \
{ag}a2f{gef}ecB | \
{g}A2{GdGe}A{gef}e2{AGAG}A |
{gfg}f2{AGAG}A{gef}e2{AGAG}A | | \
{g}B2{GdGe}B{gfg}f2e | \
{ag}a2f{gef}e3/2{g}c/2e |
{g}f/2a3/2f{gef}e3/2{g}c/2e | \
{gfg}f2{BG}B{gBd}B2 :|
